usr/share/icons/biglinux-icons-material/24/actions/link.svg

<svg xmlns="http://www.w3.org/2000/svg" viewBox="0 0 24 24">
  <defs id="defs3051">
    <style type="text/css" id="current-color-scheme">
      .ColorScheme-Text {
        color:#363636;
      }
      </style>
  </defs><g transform="translate(1,1)">
    <path
        style="fill:currentColor;fill-opacity:1;stroke:none" 
        d="M 3 7 C 2.4459904 7 2 7.4459904 2 8 L 2 14 C 2 14.55401 2.4459904 15 3 15 L 9 15 C 9.55401 15 10 14.55401 10 14 L 10 13 L 12 13 L 12 14 C 12 14.554 12.44599 15 13 15 L 19 15 C 19.55401 15 20 14.554 20 14 L 20 8 C 20 7.446 19.55401 7 19 7 L 13 7 C 12.44599 7 12 7.446 12 8 L 12 9 L 10 9 L 10 8 C 10 7.4459904 9.55401 7 9 7 L 3 7 z M 3 8 L 7 8 L 9 8 L 9 9 C 8.4459904 9 8 9.4459904 8 10 L 8 12 C 8 12.55401 8.4459904 13 9 13 L 9 14 L 7 14 L 3 14 L 3 8 z M 13 8 L 16 8 L 19 8 L 19 14 L 16 14 L 13 14 L 13 13 C 13.55401 13 14 12.55401 14 12 L 14 10 C 14 9.4459904 13.55401 9 13 9 L 13 8 z M 9 10 L 13 10 L 13 12 L 9 12 L 9 10 z " 
        id="rect4161"
        class="ColorScheme-Text"/>
</g></svg>

<svg xmlns="http://www.w3.org/2000/svg" viewBox="0 0 24 24"><path d="M3 7c-.554 0-1 .446-1 1v6c0 .554.446 1 1 1h6c.554 0 1-.446 1-1v-1h2v1c0 .554.446 1 1 1h6c.554 0 1-.446 1-1V8c0-.554-.446-1-1-1h-6c-.554 0-1 .446-1 1v1h-2V8c0-.554-.446-1-1-1H3zm0 1h6v1c-.554 0-1 .446-1 1v2c0 .554.446 1 1 1v1H3V8zm10 0h6v6h-6v-1c.554 0 1-.446 1-1v-2c0-.554-.446-1-1-1V8zm-4 2h4v2H9v-2z" style="fill:currentColor;fill-opacity:1;stroke:none;color:#dedede" transform="translate(1 1)"/></svg>
